X:1
T:(unknown title)
M:6/8
L:1/8
K:G
 z4 z D| G2 G D2 D| G2 G D2 D| G2 G A2 G| F3- F z D| F2 A D2 D| F2 A D2 D|\
 D2 D E2 F| G2 B D2 D| G2 B D2 D| G2 G A2 G| F3- F z F| F2 A D2 D|\
 F2 A D2 D| DDD E2 F| G3- G2||

